X: 11554
T: Edenderry, The
R: reel
M: 4/4
K: Dmajor
f3e fedB|A~F3 EDEF|A2AG DEFG|ABdf edBd|
f3g fedB|A~F3 EDDD|A2AG DEFG|ABde fdde:|
fa3 agfe|dfaf eB~B2|f3d e2dB|ABdf edBd|
fa3 agaf|dfaf edBd|f3d e2dB|ABdf e2d2:|

